assets/icons/24px/stroke/arrow-circle-backward-fiveteen-24px.svg

<svg width="24" height="24" viewBox="0 0 24 24" fill="none" xmlns="http://www.w3.org/2000/svg">
<path fill-rule="evenodd" clip-rule="evenodd" d="M7.8865 2.30587C7.50314 1.90831 6.87008 1.89679 6.47252 2.28015L3.80587 4.85152C3.61042 5.03999 3.5 5.29984 3.5 5.57136C3.5 5.84288 3.6104 6.10273 3.80585 6.2912L6.4725 8.86271C6.87005 9.24608 7.50311 9.23458 7.88648 8.83703C8.26985 8.43948 8.25835 7.80642 7.8608 7.42305L6.9776 6.57137L11.5 6.57136C15.4354 6.57136 18.5 9.24909 18.5 13.2857C18.5 17.3223 15.4354 20 11.5 20C7.7054 20 5.12222 17.0681 5.12222 13.2857C5.12222 12.7334 4.6745 12.2857 4.12222 12.2857C3.56993 12.2857 3.12222 12.7334 3.12222 13.2857C3.12222 18.0243 6.45805 22 11.5 22C16.4011 22 20.5 18.5607 20.5 13.2857C20.5 8.01062 16.4011 4.57136 11.5 4.57136L6.97771 4.57137L7.86078 3.71985C8.25834 3.33649 8.26985 2.70343 7.8865 2.30587Z" fill="white"/>
<path fill-rule="evenodd" clip-rule="evenodd" d="M9.68126 10.034C9.87343 10.1088 10 10.2938 10 10.5V16.5C10 16.7762 9.77615 17 9.5 17C9.22386 17 9 16.7762 9 16.5V11.7854L8.49358 12.3379C8.30698 12.5414 7.9907 12.5552 7.78714 12.3686C7.58358 12.182 7.56983 11.8657 7.75643 11.6622L9.13143 10.1622C9.27075 10.0102 9.4891 9.95928 9.68126 10.034ZM11.7648 10.4025C11.8113 10.1685 12.0167 10 12.2552 10H15.5C15.7761 10 16 10.2239 16 10.5C16 10.7762 15.7761 11 15.5 11H12.6656L12.3333 12.6709C12.6626 12.5541 13.0554 12.5 13.625 12.5C14.2871 12.5 14.9157 12.634 15.3694 13.0816C15.8237 13.5296 16 14.1902 16 15C16 15.453 15.8957 15.8327 15.698 16.1386C15.5006 16.4441 15.2325 16.6412 14.9618 16.7664C14.4553 17.0005 13.8945 17.0002 13.643 17C13.6368 17 13.6308 17 13.625 17L13.6115 17C13.3599 17.0001 12.8028 17.0002 12.298 16.8557C12.039 16.7816 11.7511 16.6582 11.5221 16.4406C11.2783 16.209 11.125 15.892 11.125 15.5C11.125 15.2239 11.3489 15 11.625 15C11.9011 15 12.125 15.2239 12.125 15.5C12.125 15.6081 12.1586 15.666 12.2108 15.7156C12.2779 15.7793 12.3953 15.8434 12.5731 15.8943C12.9327 15.9972 13.3646 16 13.625 16C13.8883 16 14.2499 15.9937 14.5421 15.8587C14.677 15.7963 14.783 15.7121 14.8581 15.5958C14.9331 15.4798 15 15.297 15 15C15 14.3099 14.8465 13.9704 14.6672 13.7935C14.4873 13.6161 14.1783 13.5 13.625 13.5C13.0507 13.5 12.7829 13.5626 12.6003 13.6395C12.505 13.6796 12.4171 13.7303 12.3054 13.8023C12.2736 13.8228 12.2371 13.8468 12.1971 13.8733C12.1082 13.932 12.0017 14.0022 11.8905 14.0701C11.721 14.1733 11.5065 14.1666 11.3439 14.053C11.1812 13.9393 11.1011 13.7402 11.1398 13.5456L11.7648 10.4025Z" fill="white"/>
</svg>

<svg width="24" height="24" fill="none" xmlns="http://www.w3.org/2000/svg"><path fill-rule="evenodd" clip-rule="evenodd" d="M7.886 2.306a1 1 0 0 0-1.413-.026L3.806 4.852a1 1 0 0 0 0 1.44l2.667 2.57A1 1 0 1 0 7.86 7.424l-.883-.852H11.5c3.935 0 7 2.678 7 6.715 0 4.036-3.065 6.714-7 6.714-3.795 0-6.378-2.932-6.378-6.714a1 1 0 1 0-2 0C3.122 18.024 6.458 22 11.5 22c4.901 0 9-3.44 9-8.714 0-5.275-4.099-8.715-9-8.715H6.978l.883-.851a1 1 0 0 0 .026-1.414z" fill="#fff"/><path fill-rule="evenodd" clip-rule="evenodd" d="M9.681 10.034A.5.5 0 0 1 10 10.5v6a.5.5 0 1 1-1 0v-4.715l-.506.553a.5.5 0 0 1-.738-.676l1.375-1.5a.5.5 0 0 1 .55-.128zm2.084.368a.5.5 0 0 1 .49-.402H15.5a.5.5 0 0 1 0 1h-2.834l-.333 1.67c.33-.116.722-.17 1.292-.17.662 0 1.29.134 1.744.582.455.448.631 1.108.631 1.918 0 .453-.104.833-.302 1.139a1.72 1.72 0 0 1-.736.627c-.507.235-1.067.234-1.319.234h-.032c-.251 0-.808 0-1.313-.144-.259-.074-.547-.198-.776-.415a1.263 1.263 0 0 1-.397-.941.5.5 0 0 1 1 0c0 .108.034.166.086.216a.885.885 0 0 0 .362.178c.36.103.792.106 1.052.106.263 0 .625-.006.917-.141a.722.722 0 0 0 .316-.263c.075-.116.142-.299.142-.596 0-.69-.153-1.03-.333-1.207-.18-.177-.489-.293-1.042-.293-.574 0-.842.063-1.025.14-.095.04-.183.09-.295.162l-.108.071c-.089.059-.195.13-.306.197a.5.5 0 0 1-.751-.524l.625-3.143z" fill="#fff"/></svg>
